X: 3226
T: OLD LANGALEE
%R: jig
B: James Kerr "Merry Melodies" v.3 p.26 #226
Z: 2016 John Chambers <jc:trillian.mit.edu>
M: 6/8
L: 1/8
K: A
|:\
vA3 c3 | BAB cAF | EFG A2f |\
[1 edc cBA :|[2 edc B2A ||\
cde ef=g | fdf ecA |\
cde ef=g | fdf a3 |\
Ace agf | edc cBA |\
EFG A2f | edc B2A |]

%%sep 1 1 500
%%sep 1 1 500

